app/images/brands/fanta.svg

<svg width="80" height="59" viewBox="0 0 80 59" fill="none" xmlns="http://www.w3.org/2000/svg">
<g clip-path="url(#clip0_1922_2248)">
<path d="M34.438 58.7011C50.5969 58.7011 63.6963 45.5604 63.6963 29.3506C63.6963 13.1407 50.5969 0 34.438 0C18.2791 0 5.17969 13.1407 5.17969 29.3506C5.17969 45.5604 18.2791 58.7011 34.438 58.7011Z" fill="#F4991D"/>
<path d="M0 16.3113L16.0688 14.6286C16.0688 14.6286 10.3155 9.96433 9.69267 7.79935C9.69267 7.79935 9.45226 6.59902 11.37 5.9687C13.2878 5.33839 21.4397 2.12107 21.4397 2.12107C21.4397 2.12107 33.1922 -1.53474 38.7051 12.8035L48.5344 11.2633V12.8035L65.7998 12.3211L66.4226 18.3338H70.739L75.9186 36.2784L53.3807 53.8395C53.3807 53.8395 48.2011 58.3119 36.8365 58.5531L3.89018 45.4207L0 16.3113Z" fill="#2F358C"/>
<path d="M11.7032 7.89263C11.7032 7.89263 18.2761 5.39331 18.8006 4.86166C19.3743 4.28616 27.1929 1.34836 32.613 6.06199C32.613 6.06199 36.4485 9.81645 37.6505 14.3382L39.9508 19.0519L41.1473 21.2662C41.1473 21.2662 41.4806 22.0829 41.1473 22.2308C40.814 22.3788 38.3663 18.4764 38.3663 18.4764L37.2626 16.8869C37.2626 16.8869 36.301 15.6372 33.5199 16.2127C30.7389 16.7882 26.4717 17.2706 23.4011 16.7444C20.3851 16.1634 13.2823 10.1015 11.7032 7.89263Z" fill="#75B947"/>
<path d="M24.1715 16.6952C21.1009 16.1635 14.0035 10.1016 12.419 7.89274C12.419 7.89274 18.9919 5.39342 19.5164 4.86176C19.806 4.57127 22.3466 3.51345 25.5101 3.42027C22.057 3.32161 19.1339 4.52742 18.7952 4.86176C18.2269 5.43726 11.7032 7.89274 11.7032 7.89274C13.2877 10.1564 20.3851 16.2183 23.4557 16.6952C24.5102 16.887 25.6631 16.9363 26.8596 16.9363C25.898 16.887 24.9856 16.8377 24.1715 16.6952Z" fill="#609744"/>
<path d="M17.4566 9.57543C17.4566 9.57543 20.4781 8.08461 22.1063 9.57543C25.3189 12.5078 32.2743 14.0479 33.6184 13.7629C33.6184 13.7629 26.663 15.3524 24.6524 14.2452C22.0134 12.7982 20.4289 10.8251 17.4566 9.57543Z" fill="#609744"/>
<path d="M2.44781 18.4764L6.19047 44.215L11.7034 43.8314L10.8401 32.7653L16.353 32.283L15.6318 27.4707L10.1189 28.1942L9.63808 23.5299L16.353 22.3295L15.3914 16.1689L2.44781 18.4764ZM31.1269 20.6414L33.7659 41.6664L38.8964 41.0909L38.1752 30.5071L46.5674 40.2249L50.5505 39.7426L47.4307 14.2451L41.7703 14.8699L42.9668 25.5523L36.3994 19.5342L31.1269 20.6414Z" fill="white"/>
<path d="M36.3994 20.0166L42.9722 26.0292L42.9231 25.4975L36.3994 19.5343L31.1214 20.6414L31.1706 21.0744L36.3994 20.0166ZM47.4306 14.722L50.5013 39.7426H50.5504L47.4306 14.2451L41.7702 14.8699L41.8686 15.3523L47.4306 14.722ZM38.1751 30.984L38.8963 41.0854L38.2243 30.984H38.1751Z" fill="#CDCBE6"/>
<path d="M48.8731 15.2042L49.5889 20.8825L52.9436 20.9812L54.4789 38.6847L60.8551 38.5422L60.2322 20.4988L64.6906 20.1645L63.8274 14.0039L48.8731 15.2042Z" fill="white"/>
<path d="M49.4468 15.7798L54.0036 15.155L63.8329 13.9985L48.8677 15.1989L49.5889 20.8826H50.0697L49.4468 15.7798ZM53.5228 21.5568L52.9928 21.5075L54.4789 38.6848L55.0089 38.6355L53.5228 21.5568Z" fill="#CDCBE6"/>
<path d="M24.5104 19.293L19.0903 19.9178L16.7901 43.3982L21.1065 43.1571L22.2101 36.9033L25.3299 36.5196L27.8651 42.2911L32.4218 41.6662L24.5104 19.293ZM22.1118 32.9077L22.7346 28.8189H23.6963L25.1332 32.5733L22.1118 32.9077Z" fill="white"/>
<path d="M19.2323 20.1096L24.554 19.3423L24.5048 19.293L19.134 19.9178L16.8337 43.3489L17.7954 43.2996L19.2323 20.1096ZM28.7283 42.1431L26.0401 36.4648L25.4173 36.5635L27.865 42.2911L32.4218 41.6663V41.5238L28.7283 42.1431Z" fill="#CDCBE6"/>
<path d="M69.7338 20.8823L62.538 21.9895L62.7784 38.0103L66.614 37.6267L66.8544 33.5379L69.0126 33.2967L70.6899 36.662L74.7659 36.5195L69.7338 20.8823ZM68.0072 30.1177C66.6631 30.2164 66.3299 29.4436 66.0895 28.6763L69.2092 28.3419C69.2092 28.3364 69.3513 30.0191 68.0072 30.1177Z" fill="white"/>
<path d="M63.4996 22.3241L69.9742 21.6006L69.7338 20.8333L62.538 21.9404L62.7784 37.912H63.1117L63.4996 22.3241ZM69.8758 29.0109L69.1109 29.0602C69.0126 29.5425 68.7284 30.0687 67.9581 30.118C67.5756 30.1673 67.2368 30.0687 66.9964 29.9755C67.2368 30.4085 67.6685 30.7429 68.5809 30.7429C69.925 30.6935 69.8758 29.0109 69.8758 29.0109ZM69.4934 33.8725L69.3513 33.9218L70.6954 36.6184H70.7446L69.4934 33.8725Z" fill="#C6C3E1"/>
<path d="M3.64426 27.1855L6.33241 44.2149L7.43609 44.1162L4.3163 27.6624L3.64426 27.1855Z" fill="#CDCBE6"/>
<path d="M77.5524 34.3985L77.1207 34.4971L77.0716 34.3546L78.0769 34.1628L78.1261 34.3053L77.6944 34.4039L77.8857 35.6536L77.6944 35.7029L77.5524 34.3985ZM79.7106 34.689C79.6614 34.4971 79.6122 34.256 79.5685 34.1135C79.5685 34.3053 79.5194 34.4478 79.4702 34.689L79.3281 35.4124H79.1861L78.8528 34.7876C78.7544 34.5958 78.6615 34.4533 78.6124 34.256C78.6615 34.4478 78.6615 34.6396 78.7107 34.8808L78.7599 35.4563L78.5687 35.5056L78.4266 34.108L78.667 34.0586L79.0003 34.6835C79.0986 34.826 79.1424 34.974 79.2407 35.1165C79.2407 34.974 79.2899 34.826 79.2899 34.6341L79.4319 33.9107L79.6723 33.8613L80.0056 35.2097L79.8144 35.259L79.7106 34.689Z" fill="#2F358C"/>
</g>
<defs>
<clipPath id="clip0_1922_2248">
<rect width="80" height="58.6957" fill="white"/>
</clipPath>
</defs>
</svg>

<svg width="80" height="59" fill="none" xmlns="http://www.w3.org/2000/svg"><g clip-path="url(#clip0_1922_2248)"><path d="M34.438 58.701c16.159 0 29.258-13.14 29.258-29.35S50.596 0 34.438 0C18.279 0 5.18 13.14 5.18 29.35s13.1 29.351 29.258 29.351z" fill="#F4991D"/><path d="M0 16.311l16.069-1.682s-5.753-4.665-6.376-6.83c0 0-.24-1.2 1.677-1.83 1.918-.63 10.07-3.848 10.07-3.848s11.752-3.656 17.265 10.683l9.83-1.54v1.54L65.8 12.32l.623 6.013h4.316l5.18 17.944L53.38 53.84s-5.18 4.472-16.544 4.713L3.89 45.421 0 16.31z" fill="#2F358C"/><path d="M11.703 7.893s6.573-2.5 7.098-3.031c.573-.576 8.392-3.514 13.812 1.2 0 0 3.836 3.754 5.038 8.276l2.3 4.714 1.196 2.214s.334.817 0 .965c-.333.148-2.78-3.755-2.78-3.755l-1.104-1.59s-.962-1.249-3.743-.673c-2.781.575-7.048 1.058-10.119.531-3.016-.58-10.119-6.643-11.698-8.851z" fill="#75B947"/><path d="M24.172 16.695c-3.071-.532-10.168-6.593-11.753-8.802 0 0 6.573-2.5 7.097-3.031.29-.29 2.83-1.349 5.994-1.442-3.453-.098-6.376 1.107-6.715 1.442-.568.575-7.092 3.03-7.092 3.03 1.585 2.264 8.682 8.326 11.753 8.803 1.054.192 2.207.241 3.404.241-.962-.049-1.874-.098-2.688-.24z" fill="#609744"/><path d="M17.457 9.575s3.021-1.49 4.65 0c3.212 2.933 10.167 4.473 11.511 4.188 0 0-6.955 1.59-8.966.482-2.639-1.447-4.223-3.42-7.195-4.67z" fill="#609744"/><path d="M2.448 18.476L6.19 44.215l5.513-.384-.863-11.066 5.513-.482-.721-4.812-5.513.723-.48-4.664 6.714-1.2-.962-6.161-12.943 2.307zm28.679 2.165l2.639 21.025 5.13-.575-.72-10.584 8.391 9.718 3.983-.482-3.12-25.498-5.66.625 1.197 10.682-6.568-6.018-5.272 1.107z" fill="#fff"/><path d="M36.4 20.017l6.572 6.012-.049-.532-6.524-5.963-5.278 1.107.05.433 5.228-1.057zm11.03-5.295l3.071 25.02h.05l-3.12-25.497-5.66.625.098.482 5.562-.63zm-9.255 16.262l.721 10.101-.672-10.101h-.049z" fill="#CDCBE6"/><path d="M48.873 15.204l.716 5.678 3.355.1 1.535 17.703 6.376-.143-.623-18.043 4.459-.334-.864-6.161-14.954 1.2z" fill="#fff"/><path d="M49.447 15.78l4.557-.625 9.829-1.156-14.965 1.2.72 5.684h.482l-.623-5.103zm4.076 5.777l-.53-.05 1.486 17.178.53-.05-1.486-17.078z" fill="#CDCBE6"/><path d="M24.51 19.293l-5.42.625-2.3 23.48 4.317-.24 1.103-6.255 3.12-.383 2.535 5.771 4.557-.625-7.912-22.373zm-2.398 13.615l.623-4.09h.961l1.437 3.755-3.021.335z" fill="#fff"/><path d="M19.232 20.11l5.322-.768-.05-.049-5.37.625-2.3 23.43.961-.048 1.437-23.19zm9.496 22.033l-2.688-5.678-.623.098 2.448 5.728 4.557-.625v-.142l-3.694.62z" fill="#CDCBE6"/><path d="M69.734 20.882l-7.196 1.107.24 16.021 3.836-.383.24-4.09 2.159-.24 1.677 3.365 4.076-.142-5.032-15.638zm-1.727 9.236c-1.344.098-1.677-.674-1.918-1.442l3.12-.334c0-.006.142 1.677-1.202 1.776z" fill="#fff"/><path d="M63.5 22.324l6.474-.723-.24-.768-7.196 1.107.24 15.972h.334l.388-15.588zm6.376 6.687l-.765.05c-.098.482-.383 1.008-1.153 1.057-.382.05-.721-.05-.962-.142.24.433.672.767 1.585.767 1.344-.05 1.295-1.732 1.295-1.732zm-.383 4.862l-.142.049 1.344 2.696h.05l-1.252-2.745z" fill="#C6C3E1"/><path d="M3.644 27.186l2.688 17.029 1.104-.099-3.12-16.454-.672-.476z" fill="#CDCBE6"/><path d="M77.552 34.398l-.431.1-.05-.143 1.006-.192.05.142-.433.099.192 1.25-.192.049-.142-1.305zm2.159.291c-.05-.192-.099-.433-.142-.575 0 .191-.05.334-.099.575l-.142.723h-.142l-.333-.624c-.099-.192-.191-.335-.24-.532.049.192.049.384.098.625l.049.575-.191.05-.142-1.398.24-.05.333.626c.099.142.142.29.24.433 0-.143.05-.291.05-.483l.142-.723.24-.05.334 1.349-.192.049-.103-.57z" fill="#2F358C"/></g><defs><clipPath id="clip0_1922_2248"><path fill="#fff" d="M0 0h80v58.696H0z"/></clipPath></defs></svg>
